public_html/images/presentation.svg

<?xml version="1.0" encoding="utf-8"?>
<!-- Generated by IcoMoon.io -->
<!DOCTYPE svg PUBLIC "-//W3C//DTD SVG 1.1//EN" "http://www.w3.org/Graphics/SVG/1.1/DTD/svg11.dtd">
<svg version="1.1" xmlns="http://www.w3.org/2000/svg" xmlns:xlink="http://www.w3.org/1999/xlink" width="32" height="32" viewBox="0 0 32 32">
<path fill="#ffffff" d="M27.002 5.005h-23.005c-0.551 0-0.997-0.447-0.997-1s0.446-0.999 0.997-0.999h10.536v-1c0-0.552 0.447-0.999 0.998-0.999s0.997 0.447 0.997 0.999v1h10.474c0.552 0 0.998 0.448 0.998 0.999 0 0.553-0.446 1-0.998 1zM27.002 20.998h-23.005v-14.994h23.005v14.994zM7 13.032c0 2.213 1.791 4.007 4 4.007s4-1.794 4-4.007h-4v-4.009c-2.209 0-4 1.795-4 4.009zM18.024 9.003h-0.997v0.999h0.997v-0.999zM18.024 11.002h-0.997v0.999h0.997v-0.999zM18.024 13.001h-0.997v0.999h0.997v-0.999zM18.024 15h-0.997v1h0.997v-1zM18.024 17h-0.997v1h0.997v-1zM24.010 9.003h-4.987v0.999h4.987v-0.999zM24.010 11.002h-4.987v0.999h4.987v-0.999zM24.010 13.001h-4.987v0.999h4.987v-0.999zM24.010 15h-4.987v1h4.987v-1zM24.010 17h-4.987v1h4.987v-1zM12.781 25.996h2.251v-4.998h0.998v4.998h2.216l-2.216-4.998h1.995l3.989 8.996h-1.994l-1.33-3h-2.66v4.998h-0.998v-4.998h-2.701l-1.351 3h-1.995l4.052-8.996h1.995l-2.251 4.998zM16.030 20.998v0 0 0zM15.032 20.998v0 0 0z"></path>
</svg>

<?xml version="1.0" encoding="utf-8"?>
<!-- Generator: Adobe Illustrator 16.0.3, SVG Export Plug-In . SVG Version: 6.00 Build 0)  -->
<!DOCTYPE svg PUBLIC "-//W3C//DTD SVG 1.1//EN" "http://www.w3.org/Graphics/SVG/1.1/DTD/svg11.dtd">
<svg version="1.1" id="Layer_1" xmlns="http://www.w3.org/2000/svg" xmlns:xlink="http://www.w3.org/1999/xlink" x="0px" y="0px"
	 width="32px" height="32px" viewBox="0 0 32 32" enable-background="new 0 0 32 32" xml:space="preserve">
<path fill="#FF6700" d="M27.002,5.005H3.997C3.446,5.005,3,4.558,3,4.005c0-0.553,0.446-0.999,0.997-0.999h10.536v-1
	c0-0.552,0.447-0.999,0.998-0.999c0.551,0,0.997,0.447,0.997,0.999v1h10.475C27.555,3.006,28,3.454,28,4.005
	C28,4.558,27.555,5.005,27.002,5.005z M27.002,20.998H3.997V6.004h23.005V20.998z M7,13.032c0,2.213,1.791,4.007,4,4.007
	s4-1.794,4-4.007h-4V9.023C8.791,9.023,7,10.818,7,13.032z M18.023,9.003h-0.996v0.999h0.996V9.003z M18.023,11.002h-0.996v0.999
	h0.996V11.002z M18.023,13.001h-0.996V14h0.996V13.001z M18.023,15h-0.996v1h0.996V15z M18.023,17h-0.996v1h0.996V17z M24.01,9.003
	h-4.986v0.999h4.986V9.003z M24.01,11.002h-4.986v0.999h4.986V11.002z M24.01,13.001h-4.986V14h4.986V13.001z M24.01,15h-4.986v1
	h4.986V15z M24.01,17h-4.986v1h4.986V17z M12.781,25.996h2.251v-4.998h0.998v4.998h2.216l-2.216-4.998h1.996l3.988,8.996H20.02
	l-1.33-3h-2.66v4.998h-0.998v-4.998h-2.701l-1.351,3H8.985l4.052-8.996h1.995L12.781,25.996z M16.03,20.998L16.03,20.998
	L16.03,20.998L16.03,20.998z M15.032,20.998L15.032,20.998L15.032,20.998L15.032,20.998z"/>
</svg>
